; generated by PrusaSlicer 2.5.2 on 2023-09-10 at 16:48:58 UTC

; 

; external perimeters extrusion width = 0.31mm
; perimeters extrusion width = 0.33mm
; infill extrusion width = 0.33mm
; solid infill extrusion width = 0.33mm
; top infill extrusion width = 0.30mm
; first layer extrusion width = 0.31mm

M107
;TYPE:Custom
G90 ; use absolute coordinates
M83 ; extruder relative mode
M140 S60 ; set final bed temp
M104 S150 ; set temporary nozzle temp to prevent oozing during homing and auto bed leveling
G4 S10 ; allow partial nozzle warmup
G28 ; home all axis
G29 ; auto bed levelling
G1 Z50 F240
G1 X2 Y10 F3000
M104 S210 ; set final nozzle temp
M190 S60 ; wait for bed temp to stabilize
M109 S210 ; wait for nozzle temp to stabilize
G1 Z0.28 F240
G92 E0
G1 Y140 E10 F1500 ; prime the nozzle
G1 X2.3 F5000
G92 E0
G1 Y10 E10 F1200 ; prime the nozzle
G92 E0
G21 ; set units to millimeters
G90 ; use absolute coordinates
M83 ; use relative distances for extrusion
; Filament gcode
M107
;LAYER_CHANGE
;Z:0.2
;HEIGHT:0.2
;BEFORE_LAYER_CHANGE
G92 E0
;0.2


G1 E-5 F3600
G1 Z.2 F9000
;AFTER_LAYER_CHANGE
;0.2
G1 X65.744 Y75.501
G1 E5 F2400
M204 S500
;TYPE:Skirt/Brim
;WIDTH:0.31
G1 F1200
G1 X66.448 Y74.89 E.0207
G1 X67.148 Y74.498 E.01783
G1 X68.011 Y74.221 E.02012
G1 X68.875 Y74.132 E.01929
G1 X162.298 Y74.137 E2.07471
G1 X162.999 Y74.223 E.01569
G1 X163.848 Y74.497 E.01981
G1 X164.484 Y74.845 E.01609
G1 X165.055 Y75.298 E.0162
G1 X165.635 Y75.974 E.01978
G1 X165.995 Y76.603 E.0161
G1 X166.241 Y77.275 E.01589
G1 X166.387 Y78.205 E.02091
G1 X166.393 Y152.6 E1.65216
G1 X166.319 Y153.389 E.01758
G1 X166.107 Y154.134 E.0172
G1 X165.68 Y154.96 E.02066
G1 X165.22 Y155.539 E.01642
G1 X164.517 Y156.134 E.02045
G1 X163.897 Y156.482 E.0158
G1 X163.001 Y156.776 E.02095
G1 X162.225 Y156.866 E.01733
G1 X88.45 Y156.868 E1.63838
G1 X87.501 Y156.781 E.02116
G1 X86.509 Y156.496 E.02293
G1 X85.591 Y156.024 E.02293
G1 X84.783 Y155.381 E.02293
G1 X84.027 Y154.459 E.02647
G1 X83.465 Y153.299 E.02863
G1 X64.747 Y96.126 E1.336
G1 X64.607 Y94.925 E.02686
G1 X64.612 Y78.207 E.37127
G1 X64.698 Y77.526 E.01523
G1 X64.894 Y76.863 E.01535
G1 X65.295 Y76.079 E.01957
G1 X65.716 Y75.537 E.01525
G1 E-3.5 F3600
;WIPE_START
G1 F7200
G1 X66.448 Y74.89 E-.46363
G1 X67.148 Y74.498 E-.38131
G1 X68.011 Y74.221 E-.4304
G1 X68.324 Y74.189 E-.14966
;WIPE_END
G1 E-.075 F3600
G1 X88.353 Y104.093 F9000
G1 E5 F2400
;TYPE:Perimeter
;WIDTH:0.309999
G1 F1200
G1 X88.394 Y104.102 E.00094
G1 X88.394 Y107.848 E.08321
G1 X88.136 Y107.905 E.00586
G1 X87.767 Y108.211 E.01065
;WIDTH:0.353463
G1 X87.658 Y108.482 E.00754
;WIDTH:0.396926
G1 X87.55 Y108.754 E.0086
G1 X87.528 Y108.441 E.00923
;WIDTH:0.353463
G1 X87.507 Y108.128 E.0081
;WIDTH:0.309999
G1 X87.507 Y103.822 E.09562
;WIDTH:0.343916
G1 X87.524 Y103.67 E.00382
;WIDTH:0.377833
G1 X87.54 Y103.519 E.00425
;WIDTH:0.41175
G1 X87.557 Y103.367 E.00469
G1 X87.627 Y103.491 E.00437
;WIDTH:0.377833
G1 X87.697 Y103.615 E.00396
;WIDTH:0.343916
G1 X87.767 Y103.739 E.00356
;WIDTH:0.309999
G1 X88.136 Y104.045 E.01065
G1 X88.309 Y104.083 E.00392
G1 E-3.5 F3600
;WIPE_START
G1 F7200
G1 X88.394 Y104.102 E-.04152
G1 X88.394 Y107.014 E-1.38348
;WIPE_END
G1 E-.075 F3600
G1 X87.557 Y122.417 F9000
G1 E5 F2400
;WIDTH:0.41175
G1 F1200
G1 X87.627 Y122.541 E.00437
;WIDTH:0.377833
G1 X87.697 Y122.665 E.00396
;WIDTH:0.343916
G1 X87.767 Y122.789 E.00356
;WIDTH:0.309999
G1 X88.136 Y123.095 E.01065
G1 X88.394 Y123.152 E.00586
G1 X88.394 Y126.898 E.0832
G1 X88.136 Y126.955 E.00586
G1 X87.767 Y127.261 E.01065
;WIDTH:0.353463
G1 X87.658 Y127.532 E.00754
;WIDTH:0.396926
G1 X87.55 Y127.804 E.0086
G1 X87.528 Y127.491 E.00923
;WIDTH:0.353463
G1 X87.507 Y127.178 E.0081
;WIDTH:0.309999
G1 X87.507 Y122.872 E.09562
;WIDTH:0.343916
G1 X87.524 Y122.721 E.00382
;WIDTH:0.377833
G1 X87.54 Y122.569 E.00425
;WIDTH:0.41175
G1 X87.552 Y122.462 E.00331
G1 E-3.5 F3600
;WIPE_START
G1 F7200
G1 X87.627 Y122.541 E-.05181
G1 X87.697 Y122.665 E-.06763
G1 X87.767 Y122.789 E-.06763
G1 X88.136 Y123.095 E-.22789
G1 X88.394 Y123.152 E-.12534
G1 X88.394 Y125.014 E-.88471
;WIPE_END
G1 E-.075 F3600
G1 X87.557 Y141.467 F9000
G1 E5 F2400
G1 F1200
G1 X87.627 Y141.591 E.00437
;WIDTH:0.377833
G1 X87.697 Y141.715 E.00396
;WIDTH:0.343916
G1 X87.767 Y141.839 E.00356
;WIDTH:0.309999
G1 X88.136 Y142.145 E.01065
G1 X88.394 Y142.202 E.00586
G1 X88.394 Y145.948 E.0832
G1 X88.136 Y146.005 E.00586
G1 X87.767 Y146.311 E.01065
;WIDTH:0.353463
G1 X87.658 Y146.582 E.00754
;WIDTH:0.396926
G1 X87.55 Y146.854 E.0086
G1 X87.528 Y146.541 E.00923
;WIDTH:0.353463
G1 X87.507 Y146.228 E.0081
;WIDTH:0.309999
G1 X87.507 Y141.922 E.09562
;WIDTH:0.343916
G1 X87.524 Y141.771 E.00382
;WIDTH:0.377833
G1 X87.54 Y141.619 E.00425
;WIDTH:0.41175
G1 X87.552 Y141.512 E.00331
G1 E-3.5 F3600
;WIPE_START
G1 F7200
G1 X87.627 Y141.591 E-.05181
G1 X87.697 Y141.715 E-.06763
G1 X87.767 Y141.839 E-.06763
G1 X88.136 Y142.145 E-.22789
G1 X88.394 Y142.202 E-.12534
G1 X88.394 Y144.064 E-.88471
;WIPE_END
G1 E-.075 F3600
G1 X107.275 Y137.091 F9000
G1 E5 F2400
;WIDTH:0.309999
G1 F1200
G1 X107.444 Y137.035 E.00395
G1 X107.489 Y136.668 E.00821
G1 X107.624 Y136.403 E.00659
G1 X107.818 Y136.206 E.00614
G1 X108.152 Y136.047 E.00822
G1 X108.379 Y136.019 E.00507
G1 X122.621 Y136.019 E.31629
G1 X123.039 Y136.118 E.00954
G1 X123.282 Y136.293 E.00665
G1 X123.471 Y136.564 E.00733
G1 X123.556 Y136.954 E.00887
G1 X123.556 Y137.035 E.00179
G1 X123.896 Y137.149 E.00797
G1 X124.088 Y137.299 E.00541
G1 X124.31 Y137.663 E.00947
G1 X124.357 Y137.954 E.00655
G1 X124.357 Y141.297 E.07422
G1 X124.238 Y141.752 E.01046
G1 X124.045 Y141.993 E.00685
G1 X123.556 Y142.18 E.01163
G1 X123.556 Y145.97 E.08417
G1 X124.045 Y146.157 E.01163
G1 X124.238 Y146.398 E.00685
G1 X124.357 Y146.854 E.01046
G1 X124.357 Y150.197 E.07425
G1 X124.293 Y150.537 E.00767
G1 X124.159 Y150.772 E.00601
G1 X123.796 Y151.054 E.01022
G1 X123.556 Y151.117 E.0055
G1 X123.513 Y151.475 E.00801
G1 X123.227 Y151.908 E.01154
;WIDTH:0.350909
G1 X123.008 Y152.033 E.00644
;WIDTH:0.391818
G1 X122.79 Y152.157 E.00729
G1 X122.621 Y152.168 E.0049
;WIDTH:0.383169
G1 X108.379 Y152.168 E.40294
G1 X108.076 Y152.038 E.00931
;WIDTH:0.346584
G1 X107.774 Y151.908 E.00831
;WIDTH:0.309999
G1 X107.487 Y151.475 E.01154
G1 X107.444 Y151.117 E.00801
G1 X107.112 Y151.007 E.00778
G1 X106.841 Y150.772 E.00797
G1 X106.707 Y150.537 E.00601
G1 X106.643 Y150.197 E.00767
G1 X106.643 Y146.854 E.07425
G1 X106.762 Y146.398 E.01046
G1 X106.955 Y146.157 E.00685
G1 X107.444 Y145.97 E.01163
G1 X107.444 Y142.18 E.08417
G1 X106.955 Y141.993 E.01163
G1 X106.762 Y141.752 E.00685
G1 X106.643 Y141.297 E.01046
G1 X106.643 Y137.954 E.07422
G1 X106.69 Y137.663 E.00655
G1 X106.912 Y137.299 E.00947
G1 X107.104 Y137.149 E.00541
G1 X107.233 Y137.106 E.00302
G1 X107.378 Y137.341 F9000
G1 F1200
G1 X107.578 Y137.287 E.0046
G1 X107.711 Y137.287 E.00296
G1 X107.743 Y136.749 E.01195
G1 X107.907 Y136.482 E.00696
G1 X108.08 Y136.357 E.00475
G1 X108.379 Y136.286 E.00681
G1 X122.621 Y136.286 E.31629
G1 X122.92 Y136.357 E.00681
G1 X123.161 Y136.561 E.007
G1 X123.257 Y136.749 E.00471
G1 X123.289 Y137.287 E.01195
G1 X123.568 Y137.303 E.00621
G1 X123.827 Y137.423 E.00633
G1 X123.98 Y137.588 E.005
G1 X124.056 Y137.746 E.0039
G1 X124.09 Y137.954 E.00468
G1 X124.09 Y141.297 E.07422
G1 X124.005 Y141.622 E.00747
G1 X123.867 Y141.794 E.00489
G1 X123.422 Y141.964 E.01059
G1 X123.289 Y141.964 E.00296
G1 X123.289 Y146.186 E.09375
G1 X123.422 Y146.186 E.00296
G1 X123.867 Y146.356 E.01059
G1 X124.005 Y146.528 E.00489
G1 X124.09 Y146.854 E.00747
G1 X124.09 Y150.197 E.07425
G1 X124.044 Y150.44 E.00548
G1 X123.949 Y150.608 E.00429
G1 X123.689 Y150.809 E.0073
G1 X123.422 Y150.865 E.00605
G1 X123.289 Y150.865 E.00296
G1 X123.258 Y151.395 E.0118
G1 X123.054 Y151.705 E.00824
G1 X122.737 Y151.854 E.00778
G1 X122.621 Y151.864 E.00257
G1 X108.379 Y151.864 E.31629
G1 X107.947 Y151.705 E.01023
G1 X107.723 Y151.323 E.00981
G1 X107.711 Y150.865 E.01019
G1 X107.433 Y150.849 E.00619
G1 X107.245 Y150.776 E.00448
G1 X107.052 Y150.608 E.00569
G1 X106.956 Y150.44 E.00429
G1 X106.91 Y150.197 E.00548
G1 X106.91 Y146.854 E.07425
G1 X106.995 Y146.528 E.00747
G1 X107.133 Y146.356 E.00489
G1 X107.578 Y146.186 E.01059
G1 X107.711 Y146.186 E.00296
G1 X107.711 Y141.964 E.09375
G1 X107.578 Y141.964 E.00296
G1 X107.133 Y141.794 E.01059
G1 X106.995 Y141.622 E.00489
G1 X106.91 Y141.297 E.00747
G1 X106.91 Y137.954 E.07422
G1 X106.944 Y137.746 E.00468
G1 X107.102 Y137.486 E.00677
G1 X107.239 Y137.379 E.00386
G1 X107.335 Y137.353 E.0022
G1 X107.463 Y137.593 F9000
G1 F1200
G1 X107.578 Y137.554 E.00271
G1 X107.978 Y137.554 E.00889
G1 X107.978 Y136.954 E.01332
G1 X108.055 Y136.718 E.00552
G1 X108.2 Y136.596 E.0042
G1 X108.379 Y136.553 E.00409
G1 X122.621 Y136.553 E.31629
G1 X122.862 Y136.634 E.00563
G1 X123.003 Y136.831 E.00539
G1 X123.022 Y137.554 E.01605
G1 X123.51 Y137.564 E.01084
G1 X123.707 Y137.673 E.00502
G1 X123.803 Y137.83 E.00406
G1 X123.823 Y137.954 E.00281
G1 X123.823 Y141.297 E.07422
G1 X123.772 Y141.492 E.00448
G1 X123.689 Y141.595 E.00293
G1 X123.422 Y141.697 E.00635
G1 X123.022 Y141.697 E.00889
G1 X123.022 Y146.453 E.10562
G1 X123.422 Y146.453 E.00889
G1 X123.689 Y146.555 E.00635
G1 X123.772 Y146.658 E.00293
G1 X123.823 Y146.854 E.00448
G1 X123.823 Y150.197 E.07425
G1 X123.738 Y150.443 E.00578
G1 X123.582 Y150.564 E.00438
G1 X123.422 Y150.598 E.00363
G1 X123.022 Y150.598 E.00889
G1 X123.022 Y151.196 E.01329
G1 X123.004 Y151.316 E.00269
G1 X122.881 Y151.501 E.00495
G1 X122.621 Y151.597 E.00614
G1 X108.379 Y151.597 E.31629
G1 X108.12 Y151.501 E.00614
G1 X107.986 Y151.273 E.00589
G1 X107.978 Y150.598 E.01499
G1 X107.491 Y150.588 E.01083
G1 X107.378 Y150.544 E.00269
G1 X107.205 Y150.343 E.00591
G1 X107.178 Y150.197 E.00329
G1 X107.178 Y146.854 E.07425
G1 X107.228 Y146.658 E.00448
G1 X107.311 Y146.555 E.00293
G1 X107.578 Y146.453 E.00635
G1 X107.978 Y146.453 E.00889
G1 X107.978 Y141.697 E.10562
G1 X107.578 Y141.697 E.00889
G1 X107.311 Y141.595 E.00635
G1 X107.228 Y141.492 E.00293
G1 X107.178 Y141.297 E.00448
G1 X107.178 Y137.954 E.07422
G1 X107.197 Y137.83 E.00281
G1 X107.335 Y137.636 E.00528
G1 X107.42 Y137.607 E.00198
G1 X107.549 Y137.824 F9000
;TYPE:External perimeter
G1 F1200
G1 X108.245 Y137.821 E.01547
G1 X108.245 Y136.954 E.01925
G1 X108.299 Y136.847 E.00265
G1 X108.379 Y136.82 E.00188
G1 X122.621 Y136.82 E.31629
G1 X122.729 Y136.875 E.00269
G1 X122.755 Y137.821 E.02101
G1 X123.422 Y137.821 E.01482
G1 X123.534 Y137.881 E.00282
G1 X123.556 Y137.954 E.0017
G1 X123.556 Y141.297 E.07422
G1 X123.511 Y141.396 E.00242
G1 X123.422 Y141.43 E.00212
G1 X122.755 Y141.43 E.01482
G1 X122.755 Y146.72 E.11748
G1 X123.422 Y146.72 E.01482
G1 X123.539 Y146.789 E.003
G1 X123.556 Y146.854 E.00149
G1 X123.556 Y150.197 E.07425
G1 X123.489 Y150.313 E.00297
G1 X122.755 Y150.331 E.0163
G1 X122.755 Y151.196 E.01922
G1 X122.708 Y151.298 E.00249
G1 X122.621 Y151.33 E.00205
G1 X108.379 Y151.33 E.31629
G1 X108.292 Y151.298 E.00205
G1 X108.245 Y151.196 E.00249
G1 X108.245 Y150.331 E.01922
G1 X107.578 Y150.331 E.01482
G1 X107.473 Y150.279 E.0026
G1 X107.445 Y150.197 E.00193
G1 X107.445 Y146.854 E.07425
G1 X107.489 Y146.754 E.00242
G1 X107.578 Y146.72 E.00212
G1 X108.245 Y146.72 E.01482
G1 X108.245 Y141.43 E.11748
G1 X107.578 Y141.43 E.01482
G1 X107.462 Y141.362 E.003
G1 X107.445 Y141.297 E.00149
G1 X107.445 Y137.954 E.07422
G1 X107.451 Y137.913 E.00094
G1 X107.516 Y137.854 E.00193
G1 X107.615 Y137.531 F9000
G1 E-3.5 F3600
;WIPE_START
G1 F7200
G1 X108.245 Y137.821 E-.34703
G1 X108.245 Y136.954 E-.41176
G1 X108.299 Y136.847 E-.05674
G1 X108.379 Y136.82 E-.04012
G1 X109.578 Y136.82 E-.56936
;WIPE_END
G1 E-.075 F3600
G1 X126.145 Y137.156 F9000
G1 E5 F2400
;TYPE:Perimeter
G1 F1200
G1 X126.494 Y137.035 E.0082
G1 X126.539 Y136.668 E.00821
G1 X126.674 Y136.403 E.00659
G1 X126.868 Y136.206 E.00614
G1 X127.202 Y136.047 E.00822
G1 X127.429 Y136.019 E.00507
G1 X141.671 Y136.019 E.31629
G1 X142.089 Y136.118 E.00954
G1 X142.332 Y136.293 E.00665
G1 X142.521 Y136.564 E.00733
G1 X142.606 Y136.954 E.00887
G1 X142.606 Y137.035 E.00179
G1 X142.946 Y137.149 E.00797
G1 X143.138 Y137.299 E.00541
G1 X143.36 Y137.663 E.00947
G1 X143.407 Y137.954 E.00655
G1 X143.407 Y141.297 E.07422
G1 X143.288 Y141.752 E.01046
G1 X143.095 Y141.993 E.00685
G1 X142.606 Y142.18 E.01163
G1 X142.606 Y145.97 E.08417
G1 X143.095 Y146.157 E.01163
G1 X143.288 Y146.398 E.00685
G1 X143.407 Y146.854 E.01046
G1 X143.407 Y150.197 E.07425
G1 X143.343 Y150.537 E.00767
G1 X143.209 Y150.772 E.00601
G1 X142.846 Y151.054 E.01022
G1 X142.606 Y151.117 E.0055
G1 X142.563 Y151.475 E.00801
G1 X142.277 Y151.908 E.01154
;WIDTH:0.350909
G1 X142.058 Y152.033 E.00644
;WIDTH:0.391818
G1 X141.84 Y152.157 E.00729
G1 X141.671 Y152.168 E.0049
;WIDTH:0.383169
G1 X127.429 Y152.168 E.40294
G1 X127.126 Y152.038 E.00931
;WIDTH:0.346584
G1 X126.824 Y151.908 E.00831
;WIDTH:0.309999
G1 X126.537 Y151.475 E.01154
G1 X126.494 Y151.117 E.00801
G1 X126.162 Y151.007 E.00778
G1 X125.891 Y150.772 E.00797
G1 X125.757 Y150.537 E.00601
G1 X125.693 Y150.197 E.00767
G1 X125.693 Y146.854 E.07425
G1 X125.812 Y146.398 E.01046
G1 X126.005 Y146.157 E.00685
G1 X126.494 Y145.97 E.01163
G1 X126.494 Y142.18 E.08417
G1 X126.005 Y141.993 E.01163
G1 X125.812 Y141.752 E.00685
G1 X125.693 Y141.297 E.01046
G1 X125.693 Y137.954 E.07422
G1 X125.74 Y137.663 E.00655
G1 X125.962 Y137.299 E.00947
G1 X126.11 Y137.183 E.00417
G1 X126.283 Y137.384 F9000
G1 F1200
G1 X126.628 Y137.287 E.00796
G1 X126.761 Y137.287 E.00296
G1 X126.793 Y136.749 E.01195
G1 X126.957 Y136.482 E.00696
G1 X127.13 Y136.357 E.00475
G1 X127.429 Y136.286 E.00681
G1 X141.671 Y136.286 E.31629
G1 X141.97 Y136.357 E.00681
G1 X142.211 Y136.561 E.007
G1 X142.307 Y136.749 E.00471
G1 X142.339 Y137.287 E.01195
G1 X142.618 Y137.303 E.00621
G1 X142.877 Y137.423 E.00633
G1 X143.03 Y137.588 E.005
G1 X143.106 Y137.746 E.0039
G1 X143.14 Y137.954 E.00468
G1 X143.14 Y141.297 E.07422
G1 X143.055 Y141.622 E.00747
G1 X142.917 Y141.794 E.00489
G1 X142.472 Y141.964 E.01059
G1 X142.339 Y141.964 E.00296
G1 X142.339 Y146.186 E.09375
G1 X142.472 Y146.186 E.00296
G1 X142.917 Y146.356 E.01059
G1 X143.055 Y146.528 E.00489
G1 X143.14 Y146.854 E.00747
G1 X143.14 Y150.197 E.07425
G1 X143.094 Y150.44 E.00548
G1 X142.999 Y150.608 E.00429
G1 X142.739 Y150.809 E.0073
G1 X142.472 Y150.865 E.00605
G1 X142.339 Y150.865 E.00296
G1 X142.308 Y151.395 E.0118
G1 X142.104 Y151.705 E.00824
G1 X141.787 Y151.854 E.00778
G1 X141.671 Y151.864 E.00257
G1 X127.429 Y151.864 E.31629
G1 X126.997 Y151.705 E.01023
G1 X126.773 Y151.323 E.00981
G1 X126.761 Y150.865 E.01019
G1 X126.483 Y150.849 E.00619
G1 X126.295 Y150.776 E.00448
G1 X126.102 Y150.608 E.00569
G1 X126.006 Y150.44 E.00429
G1 X125.96 Y150.197 E.00548
G1 X125.96 Y146.854 E.07425
G1 X126.045 Y146.528 E.00747
G1 X126.183 Y146.356 E.00489
G1 X126.628 Y146.186 E.01059
G1 X126.761 Y146.186 E.00296
G1 X126.761 Y141.964 E.09375
G1 X126.628 Y141.964 E.00296
G1 X126.183 Y141.794 E.01059
G1 X126.045 Y141.622 E.00489
G1 X125.96 Y141.297 E.00747
G1 X125.96 Y137.954 E.07422
G1 X125.994 Y137.746 E.00468
G1 X126.152 Y137.486 E.00677
G1 X126.248 Y137.412 E.00268
G1 X126.421 Y137.613 F9000
G1 F1200
G1 X126.628 Y137.554 E.00479
G1 X127.028 Y137.554 E.00889
G1 X127.028 Y136.954 E.01332
G1 X127.105 Y136.718 E.00552
G1 X127.25 Y136.596 E.0042
G1 X127.429 Y136.553 E.00409
G1 X141.671 Y136.553 E.31629
G1 X141.912 Y136.634 E.00563
G1 X142.053 Y136.831 E.00539
G1 X142.072 Y137.554 E.01605
G1 X142.56 Y137.564 E.01084
G1 X142.757 Y137.673 E.00502
G1 X142.853 Y137.83 E.00406
G1 X142.873 Y137.954 E.00281
G1 X142.873 Y141.297 E.07422
G1 X142.822 Y141.492 E.00448
G1 X142.739 Y141.595 E.00293
G1 X142.472 Y141.697 E.00635
G1 X142.072 Y141.697 E.00889
G1 X142.072 Y146.453 E.10562
G1 X142.472 Y146.453 E.00889
G1 X142.739 Y146.555 E.00635
G1 X142.822 Y146.658 E.00293
G1 X142.873 Y146.854 E.00448
G1 X142.873 Y150.197 E.07425
G1 X142.788 Y150.443 E.00578
G1 X142.632 Y150.564 E.00438
G1 X142.472 Y150.598 E.00363
G1 X142.072 Y150.598 E.00889
G1 X142.072 Y151.196 E.01329
G1 X142.054 Y151.316 E.00269
